X:1
T:Awake! Awake!
T:John Robson Sweney
T:Awake! Awake!
T:Public Domain
T:Public Domain
T:Public Domain
C:John Robson Sweney
Z:Public Domain
%%score ( 1 2 ) ( 3 4 )
L:1/8
M:4/4
K:Bb
V:1 treble 
V:2 treble 
V:3 bass 
V:4 bass 
V:1
 [DF] | [DB]3 [DF] [DB]3 [DF] | [DB]>D E>F G>F D>B, | [CF]3 [CG] [FA]3 [FB] | %4
w: 1.~A-|wake! A- wake! the|Mas- ter now is call- ing us, A-|rise! A- rise! And,|
w: 2.~A|cry for light from|dy- ing ones in hea- then lands; It|comes, it comes a-|
w: 3.~O|Church of God, ex-|tend thy kind, ma- tern- al arms, To|save the lost on|
w: 4.~Look|up! Look up! The|prom- ised day is draw- ing near, When|all shall hail, shall|
 [Fc]>[F=B] [Fc]>[Fd] [Fc]3 F | [DB]3 [DF] [DB]3 [DF] | [DB]>D E>F | G>F D>B, | %8
w: trust- ing in His Word, Go|forth! Go forth! Pro-|claim the year of|ju- bi- lee, And|
w: cross the o- cean’s foam; Then|haste! Oh, haste to|spread the words of|truth a- broad, For-|
w: mount- ains dark and cold; Reach|out thy hand with|lov- ing smile to|res- cue them, And|
w: hail the Sav- ior King; When|peace and joy shall|fold their wings in|ev- ery clime, And|
 [EG]>[E^F] [EG]>[EA] [GB]>A [GB]>[Gc] | [Fd]2 [Ec]2 [DB]4 ||"^Refrain" [DF]4 [B,D]2 [Fd]>[DB] | %11
w: take the cross, the bless- èd cross of|our Lord. *||
w: get- ting not the starv- ing poor at|dear home. On,|on, swell the cho-|
w: bring them to the shel- ter of the|ior’s fold. ~|~ ~ ~ ~|
w: “Glo- ry, hal- le- lu- jah!” o’er the|shall ring. *||
 [DF]4 [B,D]2 z2 | [CE]4 [A,C]>[CE] [FA]>[EG] | [DF]3 [EG] [DF]>[CE] [B,D]>[CE] | %14
w: |||
w: rus, On,|on, the morn- ing star|is shin- ing o’er us; On,|
w: ~ ~|~ ~ ~ ~ ~|~ ~ ~ ~ ~ ~|
w: |||
 [DF]4 [B,D]2 [Fd]>[DB] | [DF]4 [B,D]2 [DB]2 | [CA]>[CG] [CA]>[CB] [Cc]>[CB] [CA]>[CG] | %17
w: |||
w: on, while be- fore|us, Our might-|y, might- y Sav- ior leads the way.|
w: ~ ~ ~ ~|~ ~ ~|~ ~ ~ ~ ~ ~ ~ ~|
w: |||
 [CF]6 z2 |: [Fe]3 [Fc] [FA]>F [EG]>[EA] | [DB]>[CA] [DB]>[Ec] [Fd]4 :| G>^F G>A B>A G2 | %21
w: ||||
w: Glo-|ry, glo- ry, hear the ev-|last- ing throng, Faith- ful|sol- diers here be- low, on- ly|
w: Shout|“Ho- san- na!” while we bold-|march a- long; * *||
w: ||||
 [DA]>[D^G] [DA]>[DB] [Dc]>[GB] [^FA]2 | [EG]>^F [EG]>[EA] [GB]>A [GB]>[Gc] | [Fd]2 [Ec]2 [DB]3 |] %24
w: |||
w: Je- sus will we know; Shout- ing|“Free sal- va- tion!” o’er the world we||
w: |||
w: |||
V:2
 x | x8 | x8 | x8 | x8 | x8 | x4 | x4 | x11/2 G/ x2 | x8 || x8 | x8 | x8 | x8 | x8 | x8 | x8 | %17
w: ||||||||Christ|||||||||
w: ||||||||home,|||||||||
w: ||||||||Sav-|||||||||
w: ||||||||earth|||||||||
 x8 |: x11/2 E/ x2 | x8 :| x8 | x8 | x3/2 E/ x3 G/ x5/2 | x7 |] %24
w: |||||||
w: |er-||||go. *||
w: |ly||||||
w: |||||||
V:3
 [B,,B,] | [B,,F,]3 [B,,B,] [B,,F,]3 [B,,B,] | [B,,F,]>D, E,>F, G,>F, D,>[B,,B,] | %3
 [F,A,]3 [F,B,] [F,C]3 [F,D] | [F,A,]>[F,^G,] [F,A,]>[F,B,] [F,A,]3 F, | %5
 [B,,F,]3 [B,,B,] [B,,F,]3 [B,,B,] | [B,,F,]>D, E,>F, | G,>F, D,>B,, | %8
 [E,B,]>[E,A,] [E,B,]>[E,C] [=E,C]>[E,C] [E,C]>[E,B,] | [F,B,]2 [F,A,]2 [B,,F,B,]4 || %10
 [B,,B,]2 [B,,B,]2 [B,,F,]2 z2 | [B,,B,]2 [B,,B,]2 [B,,F,]2 [D,B,]2 | %12
 [F,A,]2 [F,A,]2 F,>F, F,>[F,A,] | [B,,B,]3 [B,,B,] [B,,B,]>[B,,F,] [B,,F,]>[B,,F,] | %14
 [B,,B,]2 [B,,B,]2 [B,,B,]2 z2 | [B,,B,]2 [B,,B,]2 [B,,F,]2 [B,,F,]2 | %16
 [C,F,]>[C,=E,] [C,F,]>[C,G,] [C,A,]>[C,G,] [C,F,]>[C,B,] | [F,A,]2 [F,A,]>[F,A,] [F,A,]2 z2 |: %18
 [F,A,]3 [F,A,] [F,C]>[F,A,] [F,B,]>[F,C] | [B,,B,]>[B,,F,] [B,,F,]>[B,,F,] [B,,B,]4 :| %20
 G,>^F, G,>A, B,>A, G,2 | [D,^F,]>D, [D,F,]>[D,G,] [D,A,]>[D,D] [D,D]2 | %22
 [E,B,]>[E,A,] [E,B,]>[E,C] [=E,C]>[E,C] [E,C]>[E,B,] | [F,B,]2 [F,,F,A,]2 [B,,F,B,]3 |] %24
V:4
 x | x8 | x8 | x8 | x8 | x8 | x4 | x4 | x8 | x8 || x8 | x8 | x8 | x8 | x8 | x8 | x8 | x8 |: x8 | %19
 x8 :| x8 | x3/2 ^E,/ x6 | x8 | x7 |] %24

